packages/katcn/src/icons/svg/сonnection.svg

<svg width="24" height="25" viewBox="0 0 24 25" fill="none" xmlns="http://www.w3.org/2000/svg">
<path d="M3.8 23.312C2.3 23.312 1 22.012 1 20.512V16.912C1 15.312 2.3 14.112 3.8 14.112C5.4 14.112 6.6 15.412 6.6 16.912V20.512C6.6 22.012 5.4 23.312 3.8 23.312ZM3.8 16.012C3.3 16.012 3 16.412 3 16.812V20.412C3 20.912 3.4 21.312 3.8 21.312C4.2 21.312 4.6 20.912 4.6 20.512V16.912C4.6 16.412 4.3 16.012 3.8 16.012Z" fill="black"/>
<path d="M12 23.312C10.4 23.312 9.20001 22.012 9.20001 20.512V11.412C9.20001 9.812 10.5 8.612 12 8.612C13.6 8.612 14.8 9.912 14.8 11.412V20.512C14.8 22.012 13.6 23.312 12 23.312ZM12 10.612C11.5 10.612 11.2 11.012 11.2 11.412V20.512C11.2 21.012 11.6 21.312 12 21.312C12.4 21.312 12.8 20.912 12.8 20.512V11.412C12.8 10.912 12.5 10.612 12 10.612Z" fill="black"/>
<path d="M20.2 23.312C18.6 23.312 17.4 22.012 17.4 20.512V4.11201C17.4 2.51201 18.7 1.31201 20.2 1.31201C21.7 1.31201 23 2.61201 23 4.11201V20.512C23 22.012 21.7 23.312 20.2 23.312ZM20.2 3.31201C19.7 3.31201 19.4 3.71201 19.4 4.11201V20.512C19.4 21.012 19.8 21.312 20.2 21.312C20.6 21.312 21 20.912 21 20.512V4.11201C21 3.71201 20.6 3.31201 20.2 3.31201Z" fill="black"/>
</svg>

<svg xmlns="http://www.w3.org/2000/svg" fill="none" viewBox="0 0 24 25"><path fill="#000" d="M3.8 23.312c-1.5 0-2.8-1.3-2.8-2.8v-3.6c0-1.6 1.3-2.8 2.8-2.8 1.6 0 2.8 1.3 2.8 2.8v3.6c0 1.5-1.2 2.8-2.8 2.8m0-7.3c-.5 0-.8.4-.8.8v3.6c0 .5.4.9.8.9s.8-.4.8-.8v-3.6c0-.5-.3-.9-.8-.9m8.2 7.3c-1.6 0-2.8-1.3-2.8-2.8v-9.1c0-1.6 1.3-2.8 2.8-2.8 1.6 0 2.8 1.3 2.8 2.8v9.1c0 1.5-1.2 2.8-2.8 2.8m0-12.7c-.5 0-.8.4-.8.8v9.1c0 .5.4.8.8.8s.8-.4.8-.8v-9.1c0-.5-.3-.8-.8-.8m8.2 12.7c-1.6 0-2.8-1.3-2.8-2.8v-16.4c0-1.6 1.3-2.8 2.8-2.8s2.8 1.3 2.8 2.8v16.4c0 1.5-1.3 2.8-2.8 2.8m0-20c-.5 0-.8.4-.8.8v16.4c0 .5.4.8.8.8s.8-.4.8-.8v-16.4c0-.4-.4-.8-.8-.8"/></svg>
